X: 3684
T: Billy In The Lowground
R: reel
M: 4/4
K: Cmajor
|:C2CD EGAB|c2cd cBAG|A2AB AGAB|cBAG ECDE|
C2CD EGAB|c2cd cBAG|A2AB AGAB|cAGE C4:|
|:eg2 eg2 ge|gage dcc2|ga2 ga2ag|ac'ag edcd|
eg2 eg2 ge|gage dccd|eeed c2cG|AcAG ECC2:|

